svgs/thin/alien-8bit.svg

<svg xmlns="http://www.w3.org/2000/svg" viewBox="0 0 576 512"><!--! Font Awesome Pro 6.6.0 by @fontawesome - https://fontawesome.com License - https://fontawesome.com/license (Commercial License) Copyright 2024 Fonticons, Inc. --><path d="M120 56l0 32c0 4.4 3.6 8 8 8l40 0 0-40c0-4.4-3.6-8-8-8l-32 0c-4.4 0-8 3.6-8 8zm64 0l0 40 32 0c13.3 0 24 10.7 24 24l0 40 96 0 0-40c0-13.3 10.7-24 24-24l32 0 0-40c0-13.3 10.7-24 24-24l32 0c13.3 0 24 10.7 24 24l0 32c0 13.3-10.7 24-24 24l-40 0 0 48 88 0 0-16c0-13.3 10.7-24 24-24l32 0c13.3 0 24 10.7 24 24l0 152c0 13.3-10.7 24-24 24l-40 0 0 40c0 13.3-10.7 24-24 24l-40 0 0 72c0 13.3-10.7 24-24 24l-80 0c-13.3 0-24-10.7-24-24l0-16c0-13.3 10.7-24 24-24l32 0 0-32-176 0 0 32 32 0c13.3 0 24 10.7 24 24l0 16c0 13.3-10.7 24-24 24l-80 0c-13.3 0-24-10.7-24-24l0-72-40 0c-13.3 0-24-10.7-24-24l0-40-40 0c-13.3 0-24-10.7-24-24L0 144c0-13.3 10.7-24 24-24l32 0c13.3 0 24 10.7 24 24l0 16 88 0 0-48-40 0c-13.3 0-24-10.7-24-24l0-32c0-13.3 10.7-24 24-24l32 0c13.3 0 24 10.7 24 24zM80 176l0 64c0 4.4-3.6 8-8 8s-8-3.6-8-8l0-96c0-4.4-3.6-8-8-8l-32 0c-4.4 0-8 3.6-8 8l0 152c0 4.4 3.6 8 8 8l48 0c4.4 0 8 3.6 8 8l0 48c0 4.4 3.6 8 8 8l48 0 56 0 192 0 56 0 48 0c4.4 0 8-3.6 8-8l0-48c0-4.4 3.6-8 8-8l48 0c4.4 0 8-3.6 8-8l0-152c0-4.4-3.6-8-8-8l-32 0c-4.4 0-8 3.6-8 8l0 96c0 4.4-3.6 8-8 8s-8-3.6-8-8l0-64-96 0c-4.4 0-8-3.6-8-8l0-56-32 0c-4.4 0-8 3.6-8 8l0 48c0 4.4-3.6 8-8 8l-112 0c-4.4 0-8-3.6-8-8l0-48c0-4.4-3.6-8-8-8l-32 0 0 56c0 4.4-3.6 8-8 8l-96 0zM448 96c4.4 0 8-3.6 8-8l0-32c0-4.4-3.6-8-8-8l-32 0c-4.4 0-8 3.6-8 8l0 40 40 0zM144 456c0 4.4 3.6 8 8 8l80 0c4.4 0 8-3.6 8-8l0-16c0-4.4-3.6-8-8-8l-40 0c-4.4 0-8-3.6-8-8l0-40-40 0 0 72zm248-32c0 4.4-3.6 8-8 8l-40 0c-4.4 0-8 3.6-8 8l0 16c0 4.4 3.6 8 8 8l80 0c4.4 0 8-3.6 8-8l0-72-40 0 0 40zM208 232l0 80c0 4.4-3.6 8-8 8s-8-3.6-8-8l0-80c0-4.4 3.6-8 8-8s8 3.6 8 8zm176 0l0 80c0 4.4-3.6 8-8 8s-8-3.6-8-8l0-80c0-4.4 3.6-8 8-8s8 3.6 8 8z"/></svg>

<svg xmlns="http://www.w3.org/2000/svg" viewBox="0 0 576 512"><!--! Font Awesome Pro 6.4.0 by @fontawesome - https://fontawesome.com License - https://fontawesome.com/license (Commercial License) Copyright 2023 Fonticons, Inc. --><path d="M120 56V88c0 4.4 3.6 8 8 8h40V56c0-4.4-3.6-8-8-8H128c-4.4 0-8 3.6-8 8zm64 0V96h32c13.3 0 24 10.7 24 24v40h96V120c0-13.3 10.7-24 24-24h32V56c0-13.3 10.7-24 24-24h32c13.3 0 24 10.7 24 24V88c0 13.3-10.7 24-24 24H408v48h88V144c0-13.3 10.7-24 24-24h32c13.3 0 24 10.7 24 24V296c0 13.3-10.7 24-24 24H512v40c0 13.3-10.7 24-24 24H448v72c0 13.3-10.7 24-24 24H344c-13.3 0-24-10.7-24-24V440c0-13.3 10.7-24 24-24h32V384H200v32h32c13.3 0 24 10.7 24 24v16c0 13.3-10.7 24-24 24H152c-13.3 0-24-10.7-24-24V384H88c-13.3 0-24-10.7-24-24V320H24c-13.3 0-24-10.7-24-24V144c0-13.3 10.7-24 24-24H56c13.3 0 24 10.7 24 24v16h88V112H128c-13.3 0-24-10.7-24-24V56c0-13.3 10.7-24 24-24h32c13.3 0 24 10.7 24 24zM80 176v64c0 4.4-3.6 8-8 8s-8-3.6-8-8V144c0-4.4-3.6-8-8-8H24c-4.4 0-8 3.6-8 8V296c0 4.4 3.6 8 8 8H72c4.4 0 8 3.6 8 8v48c0 4.4 3.6 8 8 8h48 56H384h56 48c4.4 0 8-3.6 8-8V312c0-4.4 3.6-8 8-8h48c4.4 0 8-3.6 8-8V144c0-4.4-3.6-8-8-8H520c-4.4 0-8 3.6-8 8v96c0 4.4-3.6 8-8 8s-8-3.6-8-8V176H400c-4.4 0-8-3.6-8-8V112H360c-4.4 0-8 3.6-8 8v48c0 4.4-3.6 8-8 8H232c-4.4 0-8-3.6-8-8V120c0-4.4-3.6-8-8-8H184v56c0 4.4-3.6 8-8 8H80zM448 96c4.4 0 8-3.6 8-8V56c0-4.4-3.6-8-8-8H416c-4.4 0-8 3.6-8 8V96h40zM144 456c0 4.4 3.6 8 8 8h80c4.4 0 8-3.6 8-8V440c0-4.4-3.6-8-8-8H192c-4.4 0-8-3.6-8-8V384H144v72zm248-32c0 4.4-3.6 8-8 8H344c-4.4 0-8 3.6-8 8v16c0 4.4 3.6 8 8 8h80c4.4 0 8-3.6 8-8V384H392v40zM208 232v80c0 4.4-3.6 8-8 8s-8-3.6-8-8V232c0-4.4 3.6-8 8-8s8 3.6 8 8zm176 0v80c0 4.4-3.6 8-8 8s-8-3.6-8-8V232c0-4.4 3.6-8 8-8s8 3.6 8 8z"/></svg>
